X:1
T:Title
%%score { 1 | 2 }
L:1/8
M:4/4
K:Db
V:1 treble nm="Grand Piano"
V:2 bass 
V:1
 z4 z2[Q:1/4=100] F2 | A3 A BFA=G | G6 G2 | [Gc]3 [CEG] [CGB]3 [CGA] |[M:3/4] [DFA]6 | %5
[M:1/4] [DFA]2 |[M:4/4] [DFd]3 [Fd] cFBD | A4- AAAB |[M:5/8] c>_c =c3 |[M:3/8] cdc | %10
[M:4/4] B3 [A,CA] [CGA]4 | [Fd]3 [Gd] [Ad]4 | [Gd]3 [Ad] [Bd]3 d | c3 B [FA][EG][DF][CE] | %14
 [DF]2 [EG]2 [FA]2 [FA]2 | [Fd]3 [Fd] [Dd]D[D_c][Dc] | [DB]6 [DB]2 | %17
 [DA]>[DA] [DA]2- [DA][DB][Ec][Fd] |[M:7/8] [Ge]3 [Fd] [Fd]3 |] %19
V:2
 z4 z2 [D,A,D]2 | [D,F,D]3 [D,F,D] [D,F,D][D,A,D][F,A,D][_F,B,D] | [E,A,C]6 [E,A,C]2 | %3
 [A,,A,]3 A,, A,,3 A,, |[M:3/4] D,6 |[M:1/4] D,2 |[M:4/4] B,,3 [B,,B,] [F,=A,E][F,A,E][G,D][G,B,] | %7
 [F,D]4- [F,D][F,D][F,D][_F,A,D] |[M:5/8] [E,A,E]>[F,A,=D] [E,A,E]3 | %9
[M:3/8] [E,A,E][E,A,F][E,A,E] |[M:4/4] [E,=G,D]3 A,, A,,4 | [D,A,]3 [D,B,] [D,_C]4 | %12
 [G,B,]3 [G,C] [G,D]3[K:treble] [G,B,G] | [A,G]3 [A,G][K:bass] [A,,A,][A,,A,][A,,A,][A,,A,] | %14
 [D,A,]2 [D,A,]2 [D,D]2 [D,D]2 | [_C,A,]3 [C,A,] [B,,G,][B,,F,][A,,F,][A,,F,] | %16
 [G,,G,]6 [=G,,_F,]2 | [A,,F,]>[A,,F,] [A,,F,]2- [A,,F,][A,,F,][A,,A,][A,,A,] | %18
[M:7/8] [A,,C]3 [D,A,] [D,A,]3 |] %19

